X:1
T:O’er the Hill and O’er the Vale
T:O’er the Hill and O’er the Vale
T: F. J. Dugard
T:Anonymous, 1860
T:Public Domain Courtesy of the Cyber Hymnal™
T:Public Domain Courtesy of the Cyber Hymnal™
C:F. J. Dugard
Z:Public Domain
Z:Courtesy of the Cyber Hymnal™
%%score ( 1 2 ) ( 3 4 )
L:1/8
Q:1/4=115
M:4/4
K:G
V:1 treble 
V:2 treble 
V:3 bass 
V:4 bass 
V:1
 [B,D]2 [B,G]2 [DB]2 [DB]2 | [Dc]2 [FA]2 G4 | [FB]2 [FA]2 [DG]2 [DF]2 | [DA]4 [DG]4 | %4
w: 1.~O’er the hill and|o’er the vale|Come three kings to-|ge- ther,|
w: 2.~O’er the hill and|o’er the vale|Each king bears a|pre- sent:|
w: 3.~He is God ye|go to meet;|There- fore in- cense|prof- fer.|
 [Dd]2 [Dd]2 [Dd]2 [DB]2 | [Dd]2 [^Dc]2 [EB]4 | [Ec]2 [EA]2 [DG]2 [DF]2 | A4 G4 x2 | B2 B2 B2 G2 | %9
w: Car- ing nought for|snow and hail,|Cold, and wind, and|wea- ther;|Now on Per- sia’s|
w: Wise men go a|Child to hail,|Mon- archs seek a|pea- sant;|And a star in|
w: He is King ye|go to greet:|Gold is in your|cof- fer.|Al- so Man He|
 F2 E2 B4 | B2 B2 B2 [EG]2 | [^DF]3 E E4 | [B,D]2 [CE]2 [DF]2 [EG]2 | [FB]4 [FA]4 | %14
w: sand- y plains,|Now where Ti- gris|swells with rains,|They their cam- els|te- ther;|
w: front pro- ceeds,|Over rocks and ri-|vers leads, Shines|with beams in- cess-|ant. There-|
w: comes to share|Ev- ery woe that|man can bear:|Temp- ter, rail- er,|scof- fer;|
 [Gd]2 [Dd]2 [Dd]2 [DB]2 | [Dd]2 [Dc]2 [DB]4 | [Dd]2 [Dd]2 [Dd]2 [DB]2 | [Dd]2 [^Dc]2 [EB]4 | %18
w: Now through Syr- ian|lands they go,|Now through Mo- ab,|faint and slow,|
w: fore on- ward, on-|ward still! Ford|the stream and climb|the hills: Love|
w: There- fore now a-|gainst the day,|In the grave where|Him they lay,|
 [Ec]2 [EA]2 [DG]2 [DF]2 | A4 G4 |] %20
w: Now through E- dom’s|hea- ther.|
w: makes all things plea-|sant. *|
w: Myrrh ye al- so|of- fer.|
V:2
 x8 | x4 G4 | x8 | x8 | x8 | x8 | x8 | (E2 F2) G4 x2 | B2 B2 B2 G2 | F2 E2 B4 | B2 B2 B2 x2 | %11
 x3 E E4 | x8 | x8 | x8 | x8 | x8 | x8 | x8 | (E2 F2) G4 |] %20
V:3
 G,2 [D,G,]2 [B,,G,]2 [G,,G,]2 | [D,F,]2 [D,C]2 [G,B,]4 | [D,D]2 [D,C]2 [D,B,]2 [D,C]2 | %3
 C4 [G,,B,]4 | [G,,B,]2 [B,,B,]2 [D,B,]2 G,2 | [F,A,]2 [F,A,]2 [E,G,]4 | %6
 [A,,A,]2 [C,A,]2 [D,B,]2 [D,A,]2 | C4 D,2 [G,B,]4 | B,2 B,2 B,2 G,2 | F,2 E,2 B,4 | %10
 B,2 B,2 B,2 [B,,B,]2 | [B,,A,]3 [E,G,] [E,G,]4 | G,2 G,2 [F,A,]2 [E,B,]2 | [D,C]4 [D,C]4 | %14
 [G,,B,]2 [B,,B,]2 [D,B,]2 G,2 | [F,A,]2 [F,A,]2 G,4 | [G,,B,]2 [B,,B,]2 [D,B,]2 G,2 | %17
 [F,A,]2 [F,A,]2 [E,G,]4 | [A,,A,]2 [C,A,]2 [D,B,]2 [D,A,]2 | C4 [G,,B,]4 |] %20
V:4
 G,2 x6 | x8 | x8 | (F,2 D,2) x4 | x6 G,2 | x8 | x8 | C,2 x8 | B,2 B,2 B,2 G,2 | F,2 E,2 B,4 | %10
 B,2 B,2 B,2 x2 | x8 | G,2 G,2 x4 | x8 | x6 G,2 | x4 G,4 | x6 G,2 | x8 | x8 | (C,2 D,2) x4 |] %20

